X:1
T: Sir George Abercrombie
C:Alexander Walker
R:Strathspey
Q: 128
K:A
M:4/4
L:1/16
|:E2|AA3 c3A e3A c3A|ABcd e3c f3B B3c|AA3 c3A e3A c3B|A3F EC3 A,4 A,3E|
A4 cBA2 e3A c3A|f3d e3c B4 Bcd2|e3c B3c A3c F3A|EFGA B2G2 A6 g2|
a3e fedc eA3 A3c|ABcd e3c B4 B3g|a3e fedc ec3 A3C|DF3 E3C A,4 A,3g|
a3e fedc eA3 A3e|ABcd e3c B4 B3c|A3c B3d c3e d3f|agfe b3g a6:|
